X: 16799
T: Harris Dance
R: reel
M: 4/4
K: Aminor
"Am"EEDC A,A,A,D|(3EEE DCA,D G,D|EEDC A,G,A,B,|CB,CA, "G" G,G,G,D|
"Am"EEDC A,A,A,D|(3EEE DCA,D G,D|EEDC A,G,A,B,|CB,CA, "G" G,G,G,B,||
"C" CGGC GCAC|GCCG GEED|CGGC GCAC|GEDE "Am" A,G,A,B,|
"C" CGGC GCAC|GCCG GEED|CGGC GCAC|GEDE "Am" A,A,A,D||

